korla-light/actions/symbolic/document-print-preview-symbolic.svg

<svg xmlns="http://www.w3.org/2000/svg" width="16" height="16" version="1.1">
 <path style="fill:#444444" d="M 2 4 C 1.5 4 1 4.5 1 5 L 1 9 C 1 9.5 1.5 10 2 10 L 3 10 L 3 8 L 7.7324 8 C 8.4204 7.2397 9.4025 6.75 10.5 6.75 C 12.373 6.75 13.927 8.1529 14.195 9.9551 C 14.621 9.8475 15 9.4336 15 9 L 15 5 C 15 4.5 14.5 4 14 4 L 2 4 z"/>
 <path style="fill:#444444" d="M 4,1 V 3 H 12 V 1 Z"/>
 <path style="fill:#444444" d="M 4,9 V 14 H 9.1934 C 7.7738,13.464 6.75,12.099 6.75,10.5 6.75,9.9672 6.8668,9.4606 7.0703,9 Z"/>
 <path style="fill:#444444" d="M 10.5,7.7498 A 2.75,2.75 0 0 0 7.75,10.5 2.75,2.75 0 0 0 10.5,13.25 2.75,2.75 0 0 0 13.25,10.5 2.75,2.75 0 0 0 10.5,7.7498 Z M 10.5,8.75 A 1.75,1.75 0 0 1 12.25,10.5 1.75,1.75 0 0 1 10.5,12.25 1.75,1.75 0 0 1 8.75,10.5 1.75,1.75 0 0 1 10.5,8.75 Z"/>
 <path style="fill:#444444" d="M 17.6,-0.75 H 20.6 C 21.154,-0.75 21.6,-0.4155 21.6,0 21.6,0.4155 21.154,0.75 20.6,0.75 H 17.6 C 17.046,0.75 16.6,0.4155 16.6,0 16.6,-0.4155 17.046,-0.75 17.6,-0.75 Z" transform="rotate(45)"/>
</svg>

<svg style="clip-rule:evenodd;fill-rule:evenodd;stroke-linejoin:round;stroke-miterlimit:2" version="1.1" viewBox="0 0 16 16" xmlns="http://www.w3.org/2000/svg">
 <path d="m2 4c-0.5 0-1 0.5-1 1v4c0 0.5 0.5 1 1 1h1v-2h4.732c0.688-0.76 1.671-1.25 2.768-1.25 1.873 0 3.427 1.403 3.695 3.205 0.426-0.107 0.805-0.521 0.805-0.955v-4c0-0.5-0.5-1-1-1h-12z" style="fill-rule:nonzero;fill:rgb(68,68,68)"/>
 <rect x="4" y="1" width="8" height="2" style="fill-opacity:.3;fill-rule:nonzero;fill:rgb(68,68,68)"/>
 <path d="m4 9v5h5.193c-1.419-0.536-2.443-1.901-2.443-3.5 0-0.533 0.117-1.039 0.32-1.5h-3.07z" style="fill-opacity:.5;fill-rule:nonzero;fill:rgb(68,68,68)"/>
 <path d="m10.5 7.75c-1.509 0-2.75 1.241-2.75 2.75s1.241 2.75 2.75 2.75 2.75-1.241 2.75-2.75-1.241-2.75-2.75-2.75zm0 1c0.96 0 1.75 0.79 1.75 1.75s-0.79 1.75-1.75 1.75-1.75-0.79-1.75-1.75 0.79-1.75 1.75-1.75z" style="fill-rule:nonzero;fill:rgb(68,68,68)"/>
 <g transform="matrix(.707107 .707107 -.707107 .707107 0 0)">
  <path d="m17.6-0.75h3c0.554 0 1 0.334 1 0.75s-0.446 0.75-1 0.75h-3c-0.554 0-1-0.334-1-0.75s0.446-0.75 1-0.75z" style="fill-rule:nonzero;fill:rgb(68,68,68)"/>
 </g>
</svg>
